X: 114
T: Miss Balfour Whitehill's Reel
C: attr. John French (1753-1803)
R: reel
B: "John French Collection", John French ed. p.11 #4
S: http://www.heallan.com/french.asp
Z: 2012 John Chambers <jc:trillian.mit.edu>
M: C
L: 1/8
K: G
d |\
(g>ab)a (ged)B | GBgb (aga)b | (g>ab)a (ged)B | cA (d/c/B/A/) BG G :|
c |\
BGDG B,GG,B | cedB cA-Ac | BGDG B,GG,B | cA (d/c/B/A/) BGGc |
BGDG B,GG,B | cedB cA-Ac | Bdgb afgd | ecAd BG-G |]

%%sep 2 1 500
%%sep 1 1 500

